X:1
T: Mr. Baillie of Mellerston
C:Nathaniel Gow
R:Strathspey
Q: 128
K:Em
M:4/4
L:1/16
|:e2|BE3 B3d D3E F2d2|BE3 B3F E3F G2A2|Bd3 Fd3 D3E F2d2|BE3 B3F E4 E2e2|
BE3 B3d D3E F2d2|BE3 B3F E3F G2A2|Bd3 Fd3 D3E F2d2|BE3 B3F E4 E2ga|
b2g2 e3f d3e f2a2|b2e2 e3g e3g e2c2|df3 Bd3 D3E F2d2|BE3 B3F E4 E2ga|
b2g2 e2f2 d3e fefa|b2e2 e3g e3g e2^c2|df3 Bd3 D3E F2d2|E2e2 BAGF E4 E2:|
